packages/ffe-icons/icons/open/400/sm/keyboard_hide.svg

<svg xmlns="http://www.w3.org/2000/svg" height="20" viewBox="0 -960 960 960" width="20"><path d="M466.661-61.339 367-161q-8-8-3.833-19.5Q367.333-192 379-192h202q11.667 0 15.833 11.5Q601-169 593-161l-99.661 99.661Q488-56 480-56t-13.339-5.339ZM168-264q-29.7 0-50.85-21.15Q96-306.3 96-336v-408q0-29.7 21.15-50.85Q138.3-816 168-816h624q29.7 0 50.85 21.15Q864-773.7 864-744v408q0 29.7-21.15 50.85Q821.7-264 792-264H168Zm0-72h624v-408H168v408Zm203.96-48h215.757Q603-384 613.5-394.289q10.5-10.29 10.5-25.5Q624-435 613.662-445.5 603.323-456 588.04-456H372.283Q357-456 346.5-445.711q-10.5 10.29-10.5 25.5Q336-405 346.338-394.5 356.677-384 371.96-384ZM168-336v-408 408Zm83.789-288Q267-624 277.5-634.289q10.5-10.29 10.5-25.5Q288-675 277.711-685.5q-10.29-10.5-25.5-10.5Q237-696 226.5-685.711q-10.5 10.29-10.5 25.5Q216-645 226.289-634.5q10.29 10.5 25.5 10.5Zm114 0Q381-624 391.5-634.289q10.5-10.29 10.5-25.5Q402-675 391.711-685.5q-10.29-10.5-25.5-10.5Q351-696 340.5-685.711q-10.5 10.29-10.5 25.5Q330-645 340.289-634.5q10.29 10.5 25.5 10.5Zm114 0Q495-624 505.5-634.289q10.5-10.29 10.5-25.5Q516-675 505.711-685.5q-10.29-10.5-25.5-10.5Q465-696 454.5-685.711q-10.5 10.29-10.5 25.5Q444-645 454.289-634.5q10.29 10.5 25.5 10.5Zm114 0Q609-624 619.5-634.289q10.5-10.29 10.5-25.5Q630-675 619.711-685.5q-10.29-10.5-25.5-10.5Q579-696 568.5-685.711q-10.5 10.29-10.5 25.5Q558-645 568.289-634.5q10.29 10.5 25.5 10.5Zm114 0Q723-624 733.5-634.289q10.5-10.29 10.5-25.5Q744-675 733.711-685.5q-10.29-10.5-25.5-10.5Q693-696 682.5-685.711q-10.5 10.29-10.5 25.5Q672-645 682.289-634.5q10.29 10.5 25.5 10.5Zm-456 120Q267-504 277.5-514.289q10.5-10.29 10.5-25.5Q288-555 277.711-565.5q-10.29-10.5-25.5-10.5Q237-576 226.5-565.711q-10.5 10.29-10.5 25.5Q216-525 226.289-514.5q10.29 10.5 25.5 10.5Zm114 0Q381-504 391.5-514.289q10.5-10.29 10.5-25.5Q402-555 391.711-565.5q-10.29-10.5-25.5-10.5Q351-576 340.5-565.711q-10.5 10.29-10.5 25.5Q330-525 340.289-514.5q10.29 10.5 25.5 10.5Zm114 0Q495-504 505.5-514.289q10.5-10.29 10.5-25.5Q516-555 505.711-565.5q-10.29-10.5-25.5-10.5Q465-576 454.5-565.711q-10.5 10.29-10.5 25.5Q444-525 454.289-514.5q10.29 10.5 25.5 10.5Zm114 0Q609-504 619.5-514.289q10.5-10.29 10.5-25.5Q630-555 619.711-565.5q-10.29-10.5-25.5-10.5Q579-576 568.5-565.711q-10.5 10.29-10.5 25.5Q558-525 568.289-514.5q10.29 10.5 25.5 10.5Zm114 0Q723-504 733.5-514.289q10.5-10.29 10.5-25.5Q744-555 733.711-565.5q-10.29-10.5-25.5-10.5Q693-576 682.5-565.711q-10.5 10.29-10.5 25.5Q672-525 682.289-514.5q10.29 10.5 25.5 10.5Z"/></svg>

<svg xmlns="http://www.w3.org/2000/svg" height="20" viewBox="0 -960 960 960" width="20"><path d="M466.66-61.34 367-161q-8-8-3.83-19.5Q367.33-192 379-192h202q11.67 0 15.83 11.5Q601-169 593-161l-99.66 99.66Q488-56 480-56t-13.34-5.34ZM168-264q-29.7 0-50.85-21.15Q96-306.3 96-336v-408q0-29.7 21.15-50.85Q138.3-816 168-816h624q29.7 0 50.85 21.15Q864-773.7 864-744v408q0 29.7-21.15 50.85Q821.7-264 792-264H168Zm0-72h624v-408H168v408Zm203.96-48h215.76q15.28 0 25.78-10.29 10.5-10.29 10.5-25.5t-10.34-25.71Q603.32-456 588.04-456H372.28q-15.28 0-25.78 10.29-10.5 10.29-10.5 25.5t10.34 25.71q10.34 10.5 25.62 10.5ZM168-336v-408 408Zm83.79-288q15.21 0 25.71-10.29t10.5-25.5q0-15.21-10.29-25.71t-25.5-10.5q-15.21 0-25.71 10.29t-10.5 25.5q0 15.21 10.29 25.71t25.5 10.5Zm114 0q15.21 0 25.71-10.29t10.5-25.5q0-15.21-10.29-25.71t-25.5-10.5q-15.21 0-25.71 10.29t-10.5 25.5q0 15.21 10.29 25.71t25.5 10.5Zm114 0q15.21 0 25.71-10.29t10.5-25.5q0-15.21-10.29-25.71t-25.5-10.5q-15.21 0-25.71 10.29t-10.5 25.5q0 15.21 10.29 25.71t25.5 10.5Zm114 0q15.21 0 25.71-10.29t10.5-25.5q0-15.21-10.29-25.71t-25.5-10.5q-15.21 0-25.71 10.29t-10.5 25.5q0 15.21 10.29 25.71t25.5 10.5Zm114 0q15.21 0 25.71-10.29t10.5-25.5q0-15.21-10.29-25.71t-25.5-10.5q-15.21 0-25.71 10.29t-10.5 25.5q0 15.21 10.29 25.71t25.5 10.5Zm-456 120q15.21 0 25.71-10.29t10.5-25.5q0-15.21-10.29-25.71t-25.5-10.5q-15.21 0-25.71 10.29t-10.5 25.5q0 15.21 10.29 25.71t25.5 10.5Zm114 0q15.21 0 25.71-10.29t10.5-25.5q0-15.21-10.29-25.71t-25.5-10.5q-15.21 0-25.71 10.29t-10.5 25.5q0 15.21 10.29 25.71t25.5 10.5Zm114 0q15.21 0 25.71-10.29t10.5-25.5q0-15.21-10.29-25.71t-25.5-10.5q-15.21 0-25.71 10.29t-10.5 25.5q0 15.21 10.29 25.71t25.5 10.5Zm114 0q15.21 0 25.71-10.29t10.5-25.5q0-15.21-10.29-25.71t-25.5-10.5q-15.21 0-25.71 10.29t-10.5 25.5q0 15.21 10.29 25.71t25.5 10.5Zm114 0q15.21 0 25.71-10.29t10.5-25.5q0-15.21-10.29-25.71t-25.5-10.5q-15.21 0-25.71 10.29t-10.5 25.5q0 15.21 10.29 25.71t25.5 10.5Z"/></svg>
